X:713
T:Mrs. MacLeod
R:Strathspey
B:The Athole Collection
M:C
L:1/8
K:G Minor
A|B<G G>^F G>BG>g|f>dc>B A>Bc>d|B<G G>^F G>BG>g|f>c A/B/c/A/ B<G G>g|
B<G G>^F G>BG>g|f>dc>B A>Bc>d|B>GA>^F D>GB,>D|(3CDE (3DE^F G<G,G,||
A|B<G g>a b>gd>b|c<a c>B A>Bc>d|B<G g>a b>ga>f|d<g^f<a b>gg>a|
b>ga>^f dB A>Bc>d|B>GA>^F (3GAB (3Abc|(3BdB (3AcA B<GG||
